frontend/public/flash.svg

<svg width="48" height="48" viewBox="0 0 48 48" fill="none" xmlns="http://www.w3.org/2000/svg">
<rect width="48" height="48" rx="24" fill="white"/>
<path d="M39.7509 16.8422H29.4243L38.7103 5.10938C38.9024 4.86094 38.729 4.5 38.4149 4.5H20.4384C20.3071 4.5 20.1806 4.57031 20.1149 4.6875L7.96963 25.6641C7.82432 25.9125 8.00245 26.2266 8.29307 26.2266H16.4681L12.2774 42.9891C12.1884 43.3547 12.629 43.6125 12.9009 43.35L40.0087 17.4844C40.2524 17.2547 40.0884 16.8422 39.7509 16.8422Z" fill="#F24E1E"/>
</svg>

<?xml version="1.0" encoding="UTF-8"?>
<svg id="Layer_1" data-name="Layer 1" xmlns="http://www.w3.org/2000/svg" width="48" height="48" viewBox="0 0 48 48">
  <defs>
    <style>
      .cls-1 {
        fill: #eece93;
      }

      .cls-1, .cls-2 {
        stroke-width: 0px;
      }

      .cls-2 {
        fill: #fff;
      }
    </style>
  </defs>
  <path class="cls-2" d="M24,0h0c13.25,0,24,10.75,24,24h0c0,13.25-10.75,24-24,24h0C10.75,48,0,37.25,0,24h0C0,10.75,10.75,0,24,0Z"/>
  <path class="cls-1" d="M39.75,16.84h-10.33l9.29-11.73c.19-.25.02-.61-.3-.61h-17.98c-.13,0-.26.07-.32.19L7.97,25.66c-.15.25.03.56.32.56h8.18l-4.19,16.76c-.09.37.35.62.62.36l27.11-25.87c.24-.23.08-.64-.26-.64Z"/>
</svg>
